X:1
T:Town of Bethlehem, CMD
T:Town of Bethlehem, CMD
T:Henry Walford Davies, 1905
T:Public Domain Courtesy of the Cyber Hymnal™
C:Henry Walford Davies, 1905
Z:Public Domain
Z:Courtesy of the Cyber Hymnal™
%%score ( 1 2 ) ( 3 4 )
L:1/8
Q:1/4=107
M:4/4
K:F
V:1 treble 
V:2 treble 
V:3 bass 
V:4 bass 
V:1
 [CA]2 | [B,G]3 [CA] [A,F]2 [CA]2 | [B,G]3 [CA] [A,F]2 [CA]2 | d2 c2 A2 GF | [CA]6 [CA]2 | %5
 [B,G]3 [CA] [A,F]2 [CA]2 | [CA][B,G] [B,G][CA] [A,F]2 [A,C][=B,D] | [CE]2 [Ec]2 =B3 A | %8
 [CA]6 E^F | [=B,^G]2 E2 [A,A]2 [CE]2 | =B2 E2 [Cc]2 [Ec-][Fcd] | [Gce]2 [EGc]2 [EG]3 [DF] | %12
 [CE]6 c2 | B3 c [FA]2 c2 x | cB Bc [FA]2 F2 x | d2 c2 A2 F2 | z2 D[_B,EG] x6 | %17
 [A,F]2 [A,F]3 [CA][Fc][Af] | [ca]4 [B-dg-]2 [Bcg]2 | [Af]6 |] %20
V:2
 x2 | x8 | x8 | F4 C4 | x8 | x8 | x8 | x4 D4 | x6 C2 | x2 C=B, x4 | D4 x4 | x8 | x6 CD | E4 CD x3 | %14
 E4 x F2 x2 | DE F4 A,=B, | ([CA]6 E4) | x8 | x8 | x6 |] %20
V:3
 C,D, | E,2 C,2 F,2 C,D, | E,2 C,2 F,2 F,2 | B,2 A,2 F,2 G,A, | [A,,E,]6 C,D, | E,2 C,2 F,2 C,D, | %6
 E,2 C,2 F,2 F,2 | E,2 C,A,, E,2 ^G,2 | A,2 A,,=B,, C,2 E,2 | D,2 E,D, C,2 E,2 | %10
 [=B,,^G,]2 E,2 [A,,A,]2 A,2 | G,4 A,2 =B,2 | [C,G,]2 C,D, E,2 [C,A,]2 | G,3 z A, F,2 [C,A,]2 | %14
 G,3 z A, F,2 A,2 | B,2 A,2 F,2 D,2 | A,,4 C,4 x2 | F,,2 C,3 F,A,C | F2 CD F2 E2 | [F,C]6 |] %20
V:4
 x2 | x8 | x8 | x8 | x8 | x8 | x8 | x4 E,4 | x8 | x8 | x8 | x4 G,4 | x8 | G,2 (C,2 F,2) x3 | %14
 G,2 (C,2 F,2) x3 | x8 | x10 | x8 | x4 C4 | x6 |] %20

